X:1
T:My boy Billy
M:4/4
L:1/8
K:C
B-c| d2 dd g2 BB| d2 de d2B-c| d2 dd g2 BB| A A3| d3 c| BB BB B2 AB|\
 cc cc c2 ge| d2 BB dc AA| G G3- G2||
